X:3
T:The Wish
T:Harmony 1
C:Lyric Todkill
L:1/8
R:Slow Air
M:3/4
K:D
Q:"68 bpm"
[| {g}Bd {ag}a3g | {a}fa {c}d3c | {g}B4 d2 | {g}e4 {g}ec | 
{g}d2 {g}e/(d d2)| {g}df a3 e | {g}d2 {g}Bd {g}e2 | {g}f3 g ae ||
{g}f3 e {g}d2 | {g}e/d/A {g}B4 |{c}d2 f2 {g}dB | (A4 A) B |
{g}c4 B2 | {g}e/d/A {g}B4 | {g}A2 e2 A2 | A4 {G}A2 |
"Watch foot"{g}!tenuto!B!tenuto!d {ag}a3g [M:5/4]| {a}fd {g}A/B/d {g}d4 {g}c/d/e "Spey Time"[M:C]|{g}e4 {gf}g4 |] 


